public/library/supersonic-icon-dark.svg

<svg width="46" height="46" viewBox="0 0 46 46" fill="none" xmlns="http://www.w3.org/2000/svg">
<circle cx="23" cy="23" r="23" fill="url(#paint0_linear_2278_4776)"/>
<path d="M14.0779 23.582H20.0444C20.1949 23.582 20.2701 23.6573 20.2701 23.8078V28.5001L21.0119 29.2741H24.9143L25.6883 28.5001V23.8078C25.6883 23.6573 25.7636 23.582 25.9141 23.582H31.8805C32.031 23.582 32.1063 23.6573 32.1063 23.8078V30.6287C32.1063 30.7362 32.0633 30.8329 31.9773 30.9189L28.6232 34.273C28.5372 34.359 28.4404 34.4021 28.3329 34.4021H17.6256C17.5181 34.4021 17.4213 34.359 17.3353 34.273L13.9812 30.9189C13.8951 30.8329 13.8522 30.7362 13.8522 30.6287V23.8078C13.8522 23.6573 13.9274 23.582 14.0779 23.582Z" fill="#ECECEC"/>
<path d="M25.608 18.9001C25.608 18.6817 25.7583 18.4921 25.9709 18.4423L32.5542 16.8993C32.8492 16.8302 33.1317 17.0541 33.1317 17.3572V22.4068C33.1317 22.6664 32.9211 22.877 32.6615 22.877H26.0782C25.8185 22.877 25.608 22.6664 25.608 22.4068V18.9001Z" fill="#ECECEC"/>
<path d="M32.1912 15.5825C32.1912 15.7954 32.0482 15.9817 31.8426 16.0368L26.1999 17.5482C25.9012 17.6282 25.608 17.4032 25.608 17.094V12.064C25.608 11.8043 25.8185 11.5938 26.0782 11.5938H31.721C31.9807 11.5938 32.1912 11.8043 32.1912 12.064V15.5825Z" fill="#ECECEC"/>
<path d="M20.435 18.9001C20.435 18.6817 20.2846 18.4921 20.072 18.4423L13.4888 16.8993C13.1937 16.8302 12.9113 17.0541 12.9113 17.3572V22.4068C12.9113 22.6664 13.1218 22.877 13.3815 22.877H19.9648C20.2244 22.877 20.435 22.6664 20.435 22.4068V18.9001Z" fill="#ECECEC"/>
<path d="M13.8522 15.5825C13.8522 15.7954 13.9951 15.9817 14.2007 16.0368L19.8435 17.5482C20.1421 17.6282 20.4354 17.4032 20.4354 17.094V12.064C20.4354 11.8043 20.2249 11.5938 19.9652 11.5938H14.3224C14.0627 11.5938 13.8522 11.8043 13.8522 12.064V15.5825Z" fill="#ECECEC"/>
<defs>
<linearGradient id="paint0_linear_2278_4776" x1="23" y1="0" x2="23" y2="46" gradientUnits="userSpaceOnUse">
<stop stop-color="#0E20CC"/>
<stop offset="1" stop-color="#4687E5"/>
</linearGradient>
</defs>
</svg>

<svg xmlns="http://www.w3.org/2000/svg" width="46" height="46" fill="none" viewBox="0 0 46 46"><circle cx="23" cy="23" r="23" fill="url(#a)"/><path fill="#ececec" d="M14.078 23.582h5.966q.226 0 .226.226V28.5l.742.774h3.902l.774-.774v-4.692q0-.226.226-.226h5.967q.225 0 .225.226v6.82a.4.4 0 0 1-.129.29l-3.354 3.355a.4.4 0 0 1-.29.13H17.626a.4.4 0 0 1-.29-.13l-3.355-3.354a.4.4 0 0 1-.129-.29v-6.821q0-.226.226-.226M25.608 18.9a.47.47 0 0 1 .363-.458l6.583-1.543a.47.47 0 0 1 .578.458v5.05c0 .26-.21.47-.47.47h-6.584a.47.47 0 0 1-.47-.47zM32.191 15.583a.47.47 0 0 1-.348.454L26.2 17.548a.47.47 0 0 1-.592-.454v-5.03c0-.26.21-.47.47-.47h5.643c.26 0 .47.21.47.47zM20.435 18.9a.47.47 0 0 0-.363-.458L13.489 16.9a.47.47 0 0 0-.578.458v5.05c0 .26.21.47.47.47h6.584c.26 0 .47-.21.47-.47zM13.852 15.583c0 .212.143.399.349.454l5.642 1.511a.47.47 0 0 0 .592-.454v-5.03a.47.47 0 0 0-.47-.47h-5.643a.47.47 0 0 0-.47.47z"/><defs><linearGradient id="a" x1="23" x2="23" y1="0" y2="46" gradientUnits="userSpaceOnUse"><stop stop-color="#0e20cc"/><stop offset="1" stop-color="#4687e5"/></linearGradient></defs></svg>
